X:13
T:Hornpipe. RDO.13
M:4/4
L:1/8
Q:1/2=90
S:Robert D. Owen MS,Indiana,1826.
R:.Hornpipe
O:Indiana,USA
A:New Harmony
Z:vmp.Chris Partington
K:D
A2|dAdf egfe|d2d2(dc)BA|BAGF GFED|E2e2e2A2|!
dAdf egfe|d2d2(de)fg|fbag fedc|d2f2d2:|!
|:c’b|(ag)fe (de)fg|ad’c’d’ e’d’c’d’|eAfA gfed|cdef e2dB|!
AGFE DEFG|Adcd edcd|eAfA gedc|d2f2d2:|

